packages/foundations/assets/icons/functional/images/audio & video/skip_forward_48.svg

<svg width="48" height="48" viewBox="0 0 48 48" fill="none" xmlns="http://www.w3.org/2000/svg">
<g clip-path="url(#clip0_2202_583)">
<path fill-rule="evenodd" clip-rule="evenodd" d="M12.281 9C12.958 9 13.635 9.208 14.208 9.573L33.094 21.292C33.5299 21.596 33.8855 22.0013 34.1304 22.4729C34.3753 22.9446 34.5021 23.4686 34.5 24C34.5 25.094 33.98 26.083 33.094 26.708L14.208 38.427C13.6326 38.7959 12.9645 38.9946 12.281 39C10.458 39 9 37.49 9 35.667V12.333C9 10.51 10.458 9 12.281 9ZM12.281 11C11.626 11 11 11.52 11 12.333C10.998 20.111 10.998 27.889 11 35.667C11 36.405 11.583 37 12.281 37C12.516 37 12.77 36.94 13.133 36.74C19.3567 32.7788 25.6262 28.8899 31.94 25.074C32.3 24.82 32.5 24.437 32.5 24C32.5 23.611 32.3 23.15 31.954 22.937C29.236 21.202 22.963 17.31 13.134 11.26C12.8795 11.0955 12.584 11.0055 12.281 11ZM39 10V38C39 38.2652 38.8946 38.5196 38.7071 38.7071C38.5196 38.8946 38.2652 39 38 39C37.7348 39 37.4804 38.8946 37.2929 38.7071C37.1054 38.5196 37 38.2652 37 38V10C37 9.73478 37.1054 9.48043 37.2929 9.29289C37.4804 9.10536 37.7348 9 38 9C38.2652 9 38.5196 9.10536 38.7071 9.29289C38.8946 9.48043 39 9.73478 39 10Z" fill="#1A1C1F"/>
</g>
<defs>
<clipPath id="clip0_2202_583">
<rect width="48" height="48" fill="white"/>
</clipPath>
</defs>
</svg>

<svg xmlns="http://www.w3.org/2000/svg" width="48" height="48" fill="none"><g clip-path="url(#a)"><path fill="#1A1C1F" fill-rule="evenodd" d="M12.281 9c.677 0 1.354.208 1.927.573l18.886 11.719A3.29 3.29 0 0 1 34.5 24c0 1.094-.52 2.083-1.406 2.708L14.208 38.427a3.6 3.6 0 0 1-1.927.573C10.458 39 9 37.49 9 35.667V12.333C9 10.51 10.458 9 12.281 9m0 2c-.655 0-1.281.52-1.281 1.333Q10.997 24 11 35.667c0 .738.583 1.333 1.281 1.333.235 0 .489-.06.852-.26A955 955 0 0 1 31.94 25.074c.36-.254.56-.637.56-1.074 0-.389-.2-.85-.546-1.063q-4.077-2.602-18.82-11.677a1.63 1.63 0 0 0-.853-.26M39 10v28a1 1 0 0 1-2 0V10a1 1 0 0 1 2 0" clip-rule="evenodd"/></g><defs><clipPath id="a"><path fill="#fff" d="M0 0h48v48H0z"/></clipPath></defs></svg>
